toggle-switch.svg

<svg fill="currentColor" viewBox="0 0 24 24"><path d="M17 7H7a5 5 0 0 0-5 5 5 5 0 0 0 5 5h10a5 5 0 0 0 5-5 5 5 0 0 0-5-5m0 8a3 3 0 0 1-3-3 3 3 0 0 1 3-3 3 3 0 0 1 3 3 3 3 0 0 1-3 3"/></svg>

<svg  viewBox="0 0 24 24" fill="currentColor"><path  d="M17,7H7A5,5 0 0,0 2,12A5,5 0 0,0 7,17H17A5,5 0 0,0 22,12A5,5 0 0,0 17,7M17,15A3,3 0 0,1 14,12A3,3 0 0,1 17,9A3,3 0 0,1 20,12A3,3 0 0,1 17,15Z"/></svg>
